icon-themes/breeze_svg/cmd/32/diagramdata.svg

<svg viewBox="0 0 32 32" xmlns="http://www.w3.org/2000/svg"><path d="m16 4c-5.522847 0-10 4.4771525-10 10 0 .337903.0160951.670712.0488281 1h1.0097657c-.0363876-.328742-.0585938-.661557-.0585938-1 0-4.9705627 4.029437-9 9-9v9h2 7c0 4.63212-3.500659 8.443387-8 8.941406v1.009766c5.052756-.502271 9-4.766228 9-9.951172 0-5.5228475-4.477153-10-10-10zm-6 12a6 2 0 0 0 -6 2v8a6 2 0 0 0 6 2 6 2 0 0 0 6-2v-8a6 2 0 0 0 -6-2zm0 1a5 1 0 0 1 5 1 5 1 0 0 1 -5 1 5 1 0 0 1 -5-1 5 1 0 0 1 5-1zm-5 2.101562a6 2 0 0 0 5 .898438 6 2 0 0 0 5-.896484v2.896484a5 1 0 0 1 -5 1 5 1 0 0 1 -5-1zm0 4a6 2 0 0 0 5 .898438 6 2 0 0 0 5-.896484v2.896484a5 1 0 0 1 -5 1 5 1 0 0 1 -5-1z" fill="#4d4d4d"/></svg>

<svg xmlns="http://www.w3.org/2000/svg" viewBox="0 0 32 32">
 <path 
     style="fill:#4d4d4d" 
     d="M 16 4 C 10.477153 4 6 8.4771525 6 14 C 6 14.337903 6.0160951 14.670712 6.0488281 15 L 7.0585938 15 C 7.0222062 14.671258 7 14.338443 7 14 C 7 9.0294373 11.029437 5 16 5 L 16 14 L 18 14 L 25 14 C 25 18.63212 21.499341 22.443387 17 22.941406 L 17 23.951172 C 22.052756 23.448901 26 19.184944 26 14 C 26 8.4771525 21.522847 4 16 4 z M 10 16 A 6 2 0 0 0 4 18 L 4 26 A 6 2 0 0 0 10 28 A 6 2 0 0 0 16 26 L 16 18 A 6 2 0 0 0 10 16 z M 10 17 A 5 1 0 0 1 15 18 A 5 1 0 0 1 10 19 A 5 1 0 0 1 5 18 A 5 1 0 0 1 10 17 z M 5 19.101562 A 6 2 0 0 0 10 20 A 6 2 0 0 0 15 19.103516 L 15 22 A 5 1 0 0 1 10 23 A 5 1 0 0 1 5 22 L 5 19.101562 z M 5 23.101562 A 6 2 0 0 0 10 24 A 6 2 0 0 0 15 23.103516 L 15 26 A 5 1 0 0 1 10 27 A 5 1 0 0 1 5 26 L 5 23.101562 z "
     />
</svg>
